!!!!SEGMENT: pl-kk--i-540--001-007_rychling-wincenty-waclaw--kompleta-no-vii-nunc-dimittis.krn
!!!cenid: 18xx:4467
!!!COM: Rychling, Wincenty Wacław
!!!COM-rismID: pe50046026
!!!CDT: 1841/01/09-1896/01/11
!!!CNT: Polish
!!!GTL: Kompleta
!!!OTL: No. VII. Nunc dimittis
!!!OMV: 007
!!!PDT:
!!!AGN: Sacred
!!!YEC: Copyright 2022 Narodowy Instytut Fryderyka Chopina (https://polishscores.org)
!!!YEM: License CC-BY-4.0 (https://creativecommons.org/licenses/by/4.0)
!!!SMS-siglum: PL-Kk
!!!SMS-shelfmark: I.540
!!!SMS-variant:
!!!SMS-altvar:
!!!SMS-shelfwork: 001-007 G
!!!NIFC-rismSourceID: 1001210701
!!!NIFC-rismChildID: 1001210719
!!!NIFC-islandoraID: pl-kk:16958
!!!URL-pdf-islandora: https://repozytorium.nifc.pl/islandora/object/pl-kk%3A16958/datastream/PDF/view
!!!URL-scan: https://polish.musicsources.pl/pl/lokalizacje/galeria/rekopisy/7167/4 @EN{Scan on Polish Music Sources Website} @PL{Skany w portalu Dziedzictwo Muzyki Polskiej w otwartym dostępie}
!!!IIIF:
!!!ONB-nifc: UWAGA: źródło tylko w wersji partyturowej, skan 4.
!!!OMD:
!!!AIN: 2 male
!!!key: c
**kern	**text	**kern	**text
*part2	*part2	*part1	*part1
*staff2	*staff2	*staff1	*staff1
*I"[Voice]	*	*I"[Voice]	*
*Imale	*	*Imale	*
*ICvox	*	*ICvox	*
*clefF4	*	*clefG2	*
*	*	*ITrd8c12	*
*k[b-e-a-]	*	*k[b-e-a-]	*
*c:	*	*c:	*
*M4/4	*	*M4/4	*
*met(c)	*	*met(c)	*
=1	=1	=1	=1
*^	*	*^	*
*	*2\right	*	*	*2\right	*
!!LO:TX:t=P:problem=all/left
!!LO:TX:t=P:problem=all\right
2E-/	2C\	.	2c/	2G\	Nunc
2F/	2F\	.	2c/	2A-\	di-
=2	=2	=2	=2	=2	=2
2G/	2E-\	.	2c/	2G\	-mit-
2G/	2C\	.	2e-/	2c\	-tis
=3	=3	=3	=3	=3	=3
4F/	4F\	.	4d/	4A-\	ser-
4F/	4F\	.	4c/	4A-\	-vum
4F/	4D\	.	4B/	4A-\	tu-
4E-/	4E-\	.	4c/	4G\	-um
=4	=4	=4	=4	=4	=4
2A-/	2F\	.	2d-X/	2A-\	Do-
2F/	2D-X\	.	2d-/	2A-\	-mi-
!!LO:LB:g=original
=5	=5	=5	=5	=5	=5
2E-/	2AA-\	.	2c/	2A-\	-ne
4r	4ryy	.	4r	4ryy	.
4E-/	4AA-\	.	4c/	8A-\L	se-
.	.	.	.	8G\J	.
=6	=6	=6	=6	=6	=6
2E-/	2AAn\	.	2c/	2F#X\	-cun-
2D/	2D\	.	2A/	2F#\	-dum
=7	=7	=7	=7	=7	=7
4D/	4GG\	.	4B/	4G\	ver-
4D/	4GG\	.	4B/	4G\	-bum
4G/	4G\	.	4d/	4Bn\	tu-
4G/	4G\	.	4d/	4B\	-um
=8	=8	=8	=8	=8	=8
2An/	2F#X\	.	2d/	2c\	in
4G/	4G\	.	2d/	4B\	pa-
4F#X/	4D\	.	.	4A\	.
=9	=9	=9	=9	=9	=9
1G	1GG;	.	1d;	1B	-ce
*v	*v	*	*	*	*
*	*	*v	*v	*
==	==	==	==
*-	*-	*-	*-
!!!system-decoration: {(s1,s2)}
!!!ENC: Andrzej Gręziak
!!!END: 2023-10-27
!!!EED: Marta Chmielewska
!!!EEV: 2024-04-18
